configs/network-icons/arbitrum-nova-dark.svg

<svg width="30" height="30" viewBox="0 0 30 30" fill="none" xmlns="http://www.w3.org/2000/svg">
<path d="M15.2955 1.86074C15.3689 1.86074 15.4367 1.87928 15.5044 1.91565L26.5276 8.2781C26.6567 8.35156 26.7366 8.48707 26.7366 8.63399V21.3582C26.7366 21.5058 26.6567 21.6406 26.5276 21.7141L15.5044 28.0822C15.4431 28.1193 15.3696 28.1371 15.2955 28.1371C15.2213 28.1371 15.1542 28.1186 15.0865 28.0822L4.0697 21.7212C3.94061 21.6477 3.86074 21.5122 3.86074 21.3653V8.6347C3.86074 8.48707 3.94061 8.35227 4.0697 8.27881L15.0865 1.91637C15.1542 1.87928 15.2213 1.86145 15.2955 1.86145M15.2955 0.000713199C14.9025 0.000713199 14.5095 0.10484 14.1593 0.308102L3.13613 6.66912C2.43576 7.07422 2 7.82379 2 8.6347V21.3589C2 22.1698 2.43576 22.9186 3.13613 23.3302L14.1593 29.6926C14.5095 29.8952 14.9025 30 15.2955 30C15.6884 30 16.0814 29.8959 16.4316 29.6926L27.4548 23.3302C28.1608 22.9251 28.5909 22.1755 28.5909 21.3589V8.6347C28.5909 7.82379 28.1551 7.07493 27.4548 6.66342L16.4316 0.30097C16.0814 0.0984214 15.6884 0 15.2955 0V0.000713199Z" fill="#FF7700"/>
<path d="M12.4826 8.48071H11.0455C10.9349 8.48071 10.8429 8.54847 10.8059 8.65259L6.16935 21.3461C6.13869 21.4324 6.20002 21.518 6.29202 21.518H7.72912C7.83967 21.518 7.93167 21.4502 7.96876 21.3461L12.5988 8.64618C12.6359 8.5663 12.5746 8.48071 12.4819 8.48071H12.4826Z" fill="#FF7700"/>
<path d="M14.3498 13.4059C14.307 13.2954 14.1472 13.2954 14.1102 13.4059L13.3606 15.4571C13.342 15.512 13.342 15.574 13.3606 15.6354L15.4488 21.3531C15.4859 21.4572 15.5836 21.525 15.6885 21.525H17.1256C17.2176 21.525 17.2789 21.4387 17.2482 21.3531L14.3498 13.4066V13.4059Z" fill="#FF7700"/>
<path d="M15.0008 8.48071H13.5637C13.4532 8.48071 13.3612 8.54847 13.3241 8.65259L8.69401 21.3461C8.66335 21.4324 8.72468 21.518 8.81668 21.518H10.2538C10.3643 21.518 10.4563 21.4502 10.4934 21.3461L15.1235 8.64618C15.1542 8.5663 15.0928 8.48071 15.0008 8.48071Z" fill="#FF7700"/>
<path d="M15.6086 9.94839C15.5658 9.83784 15.4061 9.83784 15.369 9.94839L14.6201 11.9995C14.6016 12.0545 14.6016 12.1165 14.6201 12.1778L17.9672 21.3467C18.0042 21.4509 18.1019 21.5186 18.2068 21.5186H19.6439C19.7359 21.5186 19.7972 21.4323 19.7666 21.3467L15.6093 9.9491L15.6086 9.94839Z" fill="#FF7700"/>
<path d="M24.2983 8.48071H22.8612C22.7506 8.48071 22.6586 8.54847 22.6215 8.65259L19.2688 17.8215C19.2502 17.8764 19.2502 17.9384 19.2688 17.9998L20.0184 20.0509C20.0612 20.1615 20.2209 20.1615 20.258 20.0509L24.4152 8.65331C24.4459 8.56701 24.3846 8.48143 24.2983 8.48143V8.48071Z" fill="#FF7700"/>
<path d="M18.7588 16.5934C18.8016 16.7039 18.9614 16.7039 18.9985 16.5934L21.8969 8.65259C21.9276 8.5663 21.8662 8.48071 21.7742 8.48071H20.3371C20.2266 8.48071 20.1346 8.54847 20.0975 8.65259L18.0093 14.3703C17.9907 14.4252 17.9907 14.4873 18.0093 14.5486L18.7581 16.5934H18.7588Z" fill="#FF7700"/>
</svg>

<svg xmlns="http://www.w3.org/2000/svg" fill="none" viewBox="0 0 30 30">
  <path fill="#F70" d="M15.296 1.86c.073 0 .14.02.208.056l11.024 6.362a.41.41 0 0 1 .209.356v12.724a.41.41 0 0 1-.21.356l-11.023 6.368a.43.43 0 0 1-.418 0L4.07 21.722a.41.41 0 0 1-.21-.357V8.635a.41.41 0 0 1 .21-.356l11.017-6.363a.422.422 0 0 1 .209-.055m0-1.86a2.27 2.27 0 0 0-1.137.307L3.136 6.67A2.274 2.274 0 0 0 2 8.635v12.724c0 .81.436 1.56 1.136 1.971l11.023 6.363c.35.202.743.307 1.136.307.393 0 .786-.104 1.137-.307l11.023-6.363a2.265 2.265 0 0 0 1.136-1.971V8.635c0-.811-.436-1.56-1.136-1.972L16.432.301A2.266 2.266 0 0 0 15.296 0Z"/>
  <path fill="#F70" d="M12.483 8.48h-1.438a.251.251 0 0 0-.24.173L6.17 21.346a.128.128 0 0 0 .123.172H7.73c.11 0 .203-.068.24-.172l4.63-12.7c.037-.08-.024-.165-.117-.165Zm1.867 4.926c-.043-.11-.203-.11-.24 0l-.75 2.051a.292.292 0 0 0 0 .178l2.089 5.718a.257.257 0 0 0 .24.172h1.437a.127.127 0 0 0 .122-.172l-2.898-7.946v-.001ZM15 8.48h-1.436a.251.251 0 0 0-.24.173l-4.63 12.693c-.03.086.03.172.123.172h1.437c.11 0 .202-.068.24-.172l4.63-12.7c.03-.08-.031-.165-.123-.165Zm.609 1.468c-.043-.11-.203-.11-.24 0L14.62 12a.293.293 0 0 0 0 .179l3.347 9.169a.257.257 0 0 0 .24.172h1.437a.127.127 0 0 0 .123-.172L15.609 9.949Zm8.689-1.468h-1.437a.251.251 0 0 0-.24.173L19.27 17.82a.292.292 0 0 0 0 .179l.75 2.05c.042.111.202.111.239 0l4.157-11.397a.126.126 0 0 0-.117-.172Zm-5.539 8.113c.043.11.202.11.24 0l2.898-7.94a.127.127 0 0 0-.123-.172h-1.437a.251.251 0 0 0-.24.172L18.01 14.37a.292.292 0 0 0 0 .179l.75 2.044Z"/>
</svg>
